Badges/Community/GitHub/link-github-repository.svg

<svg width="160" height="32" viewBox="0 0 160 32" fill="none" xmlns="http://www.w3.org/2000/svg">
<g filter="url(#filter0_i_26_102)">
<rect width="160" height="31.6038" rx="4" fill="black"/>
<path d="M18 8C13.58 8 10 11.582 10 16C10 19.5353 12.292 22.5333 15.47 23.59C15.87 23.6653 16.0167 23.418 16.0167 23.2053C16.0167 23.0153 16.01 22.512 16.0067 21.8453C13.7813 22.328 13.312 20.772 13.312 20.772C12.948 19.8487 12.422 19.602 12.422 19.602C11.6973 19.106 12.478 19.116 12.478 19.116C13.2813 19.172 13.7033 19.94 13.7033 19.94C14.4167 21.1633 15.576 20.81 16.0333 20.6053C16.1053 20.088 16.3113 19.7353 16.54 19.5353C14.7633 19.3353 12.896 18.6473 12.896 15.582C12.896 14.7087 13.206 13.9953 13.7193 13.4353C13.6293 13.2333 13.3593 12.42 13.7893 11.318C13.7893 11.318 14.4593 11.1033 15.9893 12.138C16.6293 11.96 17.3093 11.872 17.9893 11.868C18.6693 11.872 19.3493 11.96 19.9893 12.138C21.5093 11.1033 22.1793 11.318 22.1793 11.318C22.6093 12.42 22.3393 13.2333 22.2593 13.4353C22.7693 13.9953 23.0793 14.7087 23.0793 15.582C23.0793 18.6553 21.2093 19.332 19.4293 19.5287C19.7093 19.7687 19.9693 20.2593 19.9693 21.0087C19.9693 22.0793 19.9593 22.9393 19.9593 23.1993C19.9593 23.4093 20.0993 23.6593 20.5093 23.5793C23.71 22.53 26 19.53 26 16C26 11.582 22.418 8 18 8Z" fill="white"/>
<path d="M37.96 19.9119C35.969 19.9119 34.374 18.6359 34.374 15.9519C34.374 13.4879 35.815 11.9919 37.96 11.9919C39.313 11.9919 40.248 12.5419 40.842 13.3119L39.775 14.3789C39.357 13.8289 38.73 13.4439 37.96 13.4439C36.706 13.4439 35.892 14.2799 35.892 15.9519C35.892 17.6239 36.706 18.4599 37.96 18.4599C38.554 18.4599 39.005 18.2729 39.379 17.9099V17.0739H37.828V15.7099H40.875V18.5479C40.215 19.3399 39.357 19.9119 37.96 19.9119ZM43.5899 13.2019H42.1159V11.7279H43.5899V13.2019ZM43.5569 19.8019H42.1489V14.0379H43.5569V19.8019ZM47.6353 18.6139C47.9653 18.6139 48.2183 18.5699 48.5153 18.4929V19.7359C48.1743 19.8459 47.8333 19.9119 47.4153 19.9119C46.1173 19.9119 45.3583 19.1749 45.3583 17.7669V15.2479H44.4123V14.0379H45.3583V12.5419H46.7663V14.0379H48.3943V15.2479H46.7663V17.7449C46.7663 18.3279 47.1183 18.6139 47.6353 18.6139ZM50.9838 19.8019H49.4878V12.1019H50.9838V15.1269H54.3278V12.1019H55.8238V19.8019H54.3278V16.5789H50.9838V19.8019ZM59.2078 19.9119C58.0308 19.9119 57.3158 19.0429 57.3158 17.7889V14.0379H58.7238V17.2829C58.7238 18.2619 59.1308 18.6139 59.7578 18.6139C60.2748 18.6139 60.7808 18.2949 61.0118 17.8439V14.0379H62.4198V19.8019H61.0118V18.9879L60.8358 18.9219C60.5058 19.5269 60.0328 19.9119 59.2078 19.9119ZM67.0156 19.9119C66.2126 19.9119 65.7726 19.6479 65.4536 19.2519L65.2776 19.3179V19.8019H63.8696V11.9919H65.2776V14.8519L65.4536 14.9179C65.7506 14.3129 66.2676 13.9279 67.1366 13.9279C68.5226 13.9279 69.4906 15.0169 69.4906 16.7989C69.4906 18.8009 68.4126 19.9119 67.0156 19.9119ZM66.6856 18.6139C67.4336 18.6139 68.0606 17.9759 68.0606 16.8099C68.0606 15.6439 67.4336 15.2259 66.6746 15.2259C66.0476 15.2259 65.5526 15.5449 65.2776 15.9849V17.9319C65.5526 18.2949 65.9486 18.6139 66.6856 18.6139ZM77.8861 16.8099L79.6241 19.8019H77.8861L76.2141 16.8979H74.9711V19.8019H73.4751V12.1019H76.3461C78.0401 12.1019 79.2171 12.7509 79.2171 14.4779C79.2171 15.5999 78.6781 16.2709 77.8861 16.6119V16.8099ZM76.5661 13.5539H74.9711V15.4459H76.5661C77.2701 15.4459 77.6991 15.1379 77.6991 14.4779C77.6991 13.8179 77.2701 13.5539 76.5661 13.5539ZM82.9768 19.9119C81.2058 19.9119 80.0508 18.7129 80.0508 16.9309C80.0508 15.1489 81.2058 13.9279 82.8558 13.9279C84.6378 13.9279 85.5288 15.1489 85.5288 16.8539V17.3489H81.4698C81.5908 18.2509 82.1628 18.6359 82.9768 18.6359C83.5708 18.6359 84.0218 18.4489 84.4728 18.0749L85.3198 19.0869C84.7038 19.6589 83.8238 19.9119 82.9768 19.9119ZM82.8558 15.1159C82.1518 15.1159 81.6898 15.4789 81.5138 16.2049H84.1318C84.0438 15.5119 83.5818 15.1159 82.8558 15.1159ZM88.0403 21.8919H86.6322V14.0379H88.0403V14.8519L88.2163 14.9179C88.4693 14.4009 88.9753 13.9279 89.8333 13.9279C91.1973 13.9279 92.2533 14.9069 92.2533 16.7989C92.2533 18.6909 91.1973 19.9119 89.5033 19.9119C88.9313 19.9119 88.4473 19.7579 88.0403 19.5599V21.8919ZM89.3933 18.6139C90.2293 18.6139 90.8233 17.9539 90.8233 16.8099C90.8233 15.7099 90.2293 15.2259 89.4483 15.2259C88.8323 15.2259 88.3373 15.5229 88.0403 15.9959V18.2069C88.3263 18.4159 88.8323 18.6139 89.3933 18.6139ZM95.9408 19.9119C94.1918 19.9119 93.0918 18.7019 93.0918 16.9199C93.0918 15.1379 94.1918 13.9279 95.9408 13.9279C97.6898 13.9279 98.7898 15.1379 98.7898 16.9199C98.7898 18.7019 97.6898 19.9119 95.9408 19.9119ZM95.9518 18.6139C96.7878 18.6139 97.3598 17.9979 97.3598 16.9199C97.3598 15.8419 96.7878 15.2259 95.9518 15.2259C95.1158 15.2259 94.5218 15.8419 94.5218 16.9199C94.5218 17.9979 95.1158 18.6139 95.9518 18.6139ZM101.858 19.9119C100.868 19.9119 100.12 19.5599 99.4706 19.0319L100.219 18.0199C100.692 18.4269 101.231 18.7019 101.858 18.7019C102.452 18.7019 102.771 18.5039 102.771 18.1409C102.771 17.7779 102.507 17.6679 102.067 17.5799L101.33 17.4259C100.329 17.2169 99.7346 16.7219 99.7346 15.7759C99.7346 14.6319 100.56 13.9279 101.891 13.9279C102.727 13.9279 103.486 14.1809 104.08 14.7199L103.299 15.6879C102.87 15.3359 102.408 15.1379 101.869 15.1379C101.462 15.1379 101.099 15.2919 101.099 15.6219C101.099 15.8859 101.275 16.0619 101.836 16.1829L102.65 16.3589C103.519 16.5459 104.168 16.9969 104.168 17.9539C104.168 19.1859 103.255 19.9119 101.858 19.9119ZM106.668 13.2019H105.194V11.7279H106.668V13.2019ZM106.635 19.8019H105.227V14.0379H106.635V19.8019ZM110.713 18.6139C111.043 18.6139 111.296 18.5699 111.593 18.4929V19.7359C111.252 19.8459 110.911 19.9119 110.493 19.9119C109.195 19.9119 108.436 19.1749 108.436 17.7669V15.2479H107.49V14.0379H108.436V12.5419H109.844V14.0379H111.472V15.2479H109.844V17.7449C109.844 18.3279 110.196 18.6139 110.713 18.6139ZM114.933 19.9119C113.184 19.9119 112.084 18.7019 112.084 16.9199C112.084 15.1379 113.184 13.9279 114.933 13.9279C116.682 13.9279 117.782 15.1379 117.782 16.9199C117.782 18.7019 116.682 19.9119 114.933 19.9119ZM114.944 18.6139C115.78 18.6139 116.352 17.9979 116.352 16.9199C116.352 15.8419 115.78 15.2259 114.944 15.2259C114.108 15.2259 113.514 15.8419 113.514 16.9199C113.514 17.9979 114.108 18.6139 114.944 18.6139ZM120.331 19.8019H118.923V14.0379H120.331V14.8519L120.507 14.9179C120.826 14.2909 121.354 13.9279 122.036 13.9279C122.201 13.9279 122.377 13.9499 122.531 13.9829V15.4019C122.311 15.3249 122.036 15.2699 121.684 15.2699C121.079 15.2699 120.573 15.6439 120.331 16.1499V19.8019ZM124.445 22.0019C124.049 22.0019 123.708 21.9139 123.444 21.8259V20.5389C123.796 20.6489 124.049 20.7039 124.39 20.7039C124.863 20.7039 125.138 20.4619 125.314 20.0219L125.402 19.8019H125.171L122.938 14.0379H124.511L125.886 17.8659H126.062L127.404 14.0379H128.966L126.755 19.9779C126.183 21.5069 125.468 22.0019 124.445 22.0019Z" fill="white"/>
<path d="M143.625 10.9894C143.781 10.9894 143.914 11.0441 144.023 11.1535C144.133 11.2628 144.188 11.3957 144.188 11.5519C144.188 11.7082 144.133 11.841 144.023 11.9503C143.914 12.0597 143.781 12.1144 143.625 12.1144H140.062V19.9894H147.938V16.4269C147.938 16.2707 147.992 16.1378 148.102 16.0285C148.211 15.9191 148.344 15.8644 148.5 15.8644C148.656 15.8644 148.789 15.9191 148.898 16.0285C149.008 16.1378 149.062 16.2707 149.062 16.4269V20.1769C149.062 20.3449 149.02 20.5011 148.934 20.6457C148.852 20.7902 148.738 20.9035 148.594 20.9855C148.449 21.0714 148.293 21.1144 148.125 21.1144H139.875C139.707 21.1144 139.551 21.0714 139.406 20.9855C139.262 20.9035 139.146 20.7902 139.061 20.6457C138.979 20.5011 138.938 20.3449 138.938 20.1769V11.9269C138.938 11.7589 138.979 11.6027 139.061 11.4582C139.146 11.3136 139.262 11.2003 139.406 11.1183C139.551 11.0324 139.707 10.9894 139.875 10.9894H143.625ZM148.5 10.9894C148.656 10.9894 148.789 11.0441 148.898 11.1535C149.008 11.2628 149.062 11.3957 149.062 11.5519V13.8019C149.062 13.9582 149.008 14.091 148.898 14.2003C148.789 14.3097 148.656 14.3644 148.5 14.3644C148.344 14.3644 148.211 14.3097 148.102 14.2003C147.992 14.091 147.938 13.9582 147.938 13.8019V12.9113L144.398 16.4503C144.289 16.5597 144.156 16.6144 144 16.6144C143.844 16.6144 143.711 16.5597 143.602 16.4503C143.492 16.341 143.438 16.2082 143.438 16.0519C143.438 15.8957 143.492 15.7628 143.602 15.6535L147.141 12.1144H146.25C146.094 12.1144 145.961 12.0597 145.852 11.9503C145.742 11.841 145.688 11.7082 145.688 11.5519C145.688 11.3957 145.742 11.2628 145.852 11.1535C145.961 11.0441 146.094 10.9894 146.25 10.9894H148.5Z" fill="white"/>
</g>
<defs>
<filter id="filter0_i_26_102" x="0" y="-2" width="160" height="33.6038" filterUnits="userSpaceOnUse" color-interpolation-filters="sRGB">
<feFlood flood-opacity="0" result="BackgroundImageFix"/>
<feBlend mode="normal" in="SourceGraphic" in2="BackgroundImageFix" result="shape"/>
<feColorMatrix in="SourceAlpha" type="matrix" values="0 0 0 0 0 0 0 0 0 0 0 0 0 0 0 0 0 0 127 0" result="hardAlpha"/>
<feOffset dy="-2"/>
<feGaussianBlur stdDeviation="1.65"/>
<feComposite in2="hardAlpha" operator="arithmetic" k2="-1" k3="1"/>
<feColorMatrix type="matrix" values="0 0 0 0 1 0 0 0 0 1 0 0 0 0 1 0 0 0 0.11 0"/>
<feBlend mode="normal" in2="shape" result="effect1_innerShadow_26_102"/>
</filter>
</defs>
</svg>

<svg xmlns="http://www.w3.org/2000/svg" width="160" height="32" fill="none">
  <g filter="url(#a)">
    <rect width="160" height="31.604" fill="#000" rx="4"/>
    <path fill="#fff" d="M18 8a8 8 0 0 0-8 8 8 8 0 0 0 5.47 7.59c.4.075.547-.172.547-.385 0-.19-.007-.693-.01-1.36-2.226.483-2.695-1.073-2.695-1.073-.364-.923-.89-1.17-.89-1.17-.725-.496.056-.486.056-.486.803.056 1.225.824 1.225.824.714 1.223 1.873.87 2.33.665.072-.517.278-.87.507-1.07-1.777-.2-3.644-.888-3.644-3.953 0-.873.31-1.587.823-2.147-.09-.202-.36-1.015.07-2.117 0 0 .67-.215 2.2.82a7.7 7.7 0 0 1 2-.27 7.7 7.7 0 0 1 2 .27c1.52-1.035 2.19-.82 2.19-.82.43 1.102.16 1.915.08 2.117a3.1 3.1 0 0 1 .82 2.147c0 3.073-1.87 3.75-3.65 3.947.28.24.54.73.54 1.48 0 1.07-.01 1.93-.01 2.19 0 .21.14.46.55.38A7.97 7.97 0 0 0 26 16a8 8 0 0 0-8-8m19.96 11.912c-1.991 0-3.586-1.276-3.586-3.96 0-2.464 1.441-3.96 3.586-3.96 1.353 0 2.288.55 2.882 1.32l-1.067 1.067c-.418-.55-1.045-.935-1.815-.935-1.254 0-2.068.836-2.068 2.508s.814 2.508 2.068 2.508c.594 0 1.045-.187 1.419-.55v-.836h-1.551V15.71h3.047v2.838c-.66.792-1.518 1.364-2.915 1.364m5.63-6.71h-1.474v-1.474h1.474zm-.033 6.6h-1.408v-5.764h1.408zm4.078-1.188c.33 0 .583-.044.88-.121v1.243c-.34.11-.682.176-1.1.176-1.298 0-2.057-.737-2.057-2.145v-2.52h-.946v-1.21h.946v-1.495h1.408v1.496h1.628v1.21h-1.628v2.497c0 .583.352.869.87.869m3.349 1.188h-1.496v-7.7h1.496v3.025h3.344v-3.025h1.496v7.7h-1.496v-3.223h-3.344zm8.224.11c-1.177 0-1.892-.87-1.892-2.123v-3.751h1.408v3.245c0 .979.407 1.33 1.034 1.33a1.45 1.45 0 0 0 1.254-.77v-3.805h1.408v5.764h-1.408v-.814l-.176-.066c-.33.605-.803.99-1.628.99m7.808 0c-.803 0-1.243-.264-1.562-.66l-.176.066v.484H63.87v-7.81h1.408v2.86l.176.066c.297-.605.814-.99 1.683-.99 1.386 0 2.354 1.089 2.354 2.87 0 2.003-1.078 3.114-2.475 3.114m-.33-1.298c.748 0 1.375-.638 1.375-1.804s-.627-1.584-1.386-1.584a1.62 1.62 0 0 0-1.397.759v1.947c.275.363.67.682 1.408.682m11.2-1.804 1.738 2.992h-1.738l-1.672-2.904h-1.243v2.904h-1.496v-7.7h2.871c1.694 0 2.871.649 2.871 2.376 0 1.122-.539 1.793-1.33 2.134zm-1.32-3.256h-1.595v1.892h1.595c.704 0 1.133-.308 1.133-.968s-.429-.924-1.133-.924m6.41 6.358c-1.77 0-2.925-1.2-2.925-2.981 0-1.782 1.155-3.003 2.805-3.003 1.782 0 2.673 1.22 2.673 2.926v.495h-4.06c.122.902.694 1.287 1.508 1.287.594 0 1.045-.187 1.496-.561l.847 1.012c-.616.572-1.496.825-2.343.825m-.12-4.796c-.704 0-1.166.363-1.342 1.089h2.618c-.088-.693-.55-1.09-1.276-1.09m5.184 6.776h-1.408v-7.854h1.408v.814l.176.066c.253-.517.76-.99 1.617-.99 1.364 0 2.42.979 2.42 2.87 0 1.893-1.056 3.114-2.75 3.114a3.3 3.3 0 0 1-1.463-.352zm1.353-3.278c.836 0 1.43-.66 1.43-1.804 0-1.1-.594-1.584-1.375-1.584-.616 0-1.11.297-1.408.77v2.21c.286.21.792.408 1.353.408m6.548 1.298c-1.75 0-2.85-1.21-2.85-2.992s1.1-2.992 2.85-2.992 2.849 1.21 2.849 2.992-1.1 2.992-2.85 2.992m.01-1.298c.837 0 1.409-.616 1.409-1.694s-.572-1.694-1.408-1.694-1.43.616-1.43 1.694.594 1.694 1.43 1.694m5.907 1.298c-.99 0-1.738-.352-2.387-.88l.748-1.012c.473.407 1.012.682 1.639.682.594 0 .913-.198.913-.561s-.264-.473-.704-.561l-.737-.154c-1.001-.21-1.595-.704-1.595-1.65 0-1.144.825-1.848 2.156-1.848.836 0 1.595.253 2.189.792l-.781.968c-.429-.352-.891-.55-1.43-.55-.407 0-.77.154-.77.484 0 .264.176.44.737.56l.814.177c.869.187 1.518.638 1.518 1.595 0 1.232-.913 1.958-2.31 1.958m4.81-6.71h-1.474v-1.474h1.474zm-.033 6.6h-1.408v-5.764h1.408zm4.078-1.188c.33 0 .583-.044.88-.121v1.243c-.341.11-.682.176-1.1.176-1.298 0-2.057-.737-2.057-2.145v-2.52h-.946v-1.21h.946v-1.495h1.408v1.496h1.628v1.21h-1.628v2.497c0 .583.352.869.869.869m4.22 1.298c-1.749 0-2.849-1.21-2.849-2.992s1.1-2.992 2.849-2.992 2.849 1.21 2.849 2.992-1.1 2.992-2.849 2.992m.011-1.298c.836 0 1.408-.616 1.408-1.694s-.572-1.694-1.408-1.694-1.43.616-1.43 1.694.594 1.694 1.43 1.694m5.387 1.188h-1.408v-5.764h1.408v.814l.176.066c.319-.627.847-.99 1.529-.99.165 0 .341.022.495.055v1.419a2.5 2.5 0 0 0-.847-.132c-.605 0-1.111.374-1.353.88zm4.114 2.2c-.396 0-.737-.088-1.001-.176v-1.287c.352.11.605.165.946.165.473 0 .748-.242.924-.682l.088-.22h-.231l-2.233-5.764h1.573l1.375 3.828h.176l1.342-3.828h1.562l-2.211 5.94c-.572 1.529-1.287 2.024-2.31 2.024m19.179-11.011q.234 0 .398.163a.54.54 0 0 1 .165.399.54.54 0 0 1-.165.398.54.54 0 0 1-.398.164h-3.563v7.875h7.876v-3.562a.54.54 0 0 1 .164-.398.54.54 0 0 1 .398-.165q.234 0 .398.165a.54.54 0 0 1 .164.398v3.75a.9.9 0 0 1-.128.469.9.9 0 0 1-.34.34.9.9 0 0 1-.469.128h-8.25a.9.9 0 0 1-.469-.129.9.9 0 0 1-.345-.34.93.93 0 0 1-.123-.468v-8.25q0-.252.123-.469a.9.9 0 0 1 .345-.34.9.9 0 0 1 .469-.129zm4.875 0q.234 0 .398.163a.54.54 0 0 1 .164.399v2.25a.54.54 0 0 1-.164.398.54.54 0 0 1-.398.164.54.54 0 0 1-.398-.164.54.54 0 0 1-.164-.398v-.89l-3.54 3.538a.54.54 0 0 1-.398.164.54.54 0 0 1-.398-.164.54.54 0 0 1-.164-.398.54.54 0 0 1 .164-.399l3.539-3.539h-.891a.54.54 0 0 1-.398-.164.54.54 0 0 1-.164-.398.54.54 0 0 1 .164-.399.54.54 0 0 1 .398-.164z"/>
  </g>
  <defs>
    <filter id="a" width="160" height="33.604" x="0" y="-2" color-interpolation-filters="sRGB" filterUnits="userSpaceOnUse">
      <feFlood flood-opacity="0" result="BackgroundImageFix"/>
      <feBlend in="SourceGraphic" in2="BackgroundImageFix" result="shape"/>
      <feColorMatrix in="SourceAlpha" result="hardAlpha" values="0 0 0 0 0 0 0 0 0 0 0 0 0 0 0 0 0 0 127 0"/>
      <feOffset dy="-2"/>
      <feGaussianBlur stdDeviation="1.65"/>
      <feComposite in2="hardAlpha" k2="-1" k3="1" operator="arithmetic"/>
      <feColorMatrix values="0 0 0 0 1 0 0 0 0 1 0 0 0 0 1 0 0 0 0.11 0"/>
      <feBlend in2="shape" result="effect1_innerShadow_26_102"/>
    </filter>
  </defs>
</svg>
